X:23
T:Amar Luh Layalee
C:Dawood Hussni
N:version imparfaite
O:Egypt 
Z:anamnese@laposte.net
M:4/4
L:1/8
Q:1/4=125
K:CDor
%%MIDI program 111   %% should be a ney
C2-C D2 C B,C | DC DE D4 | D2-D E2 D CD | ED EF E4 | E2-E G2 F2 E | FG FE FE D2 |
D2-D F2 E2 D | ED CD C2 z2 | CF FE ED DC | CE/F/ GF ED C2 | C2-C D2 C B,C | DC DE D4 | 
D2-D E2 D CD | ED EF E4 | E2-E G2 F2 E | FG FE FE D2 |
C2-C F2 F2 F2 | C2 DE F2 z2 | E2-E G2 F2 E | FG FE FE D2 |
D2-D F2 E DE | D4 E/F/G/F/ E/D/C |]
